;FLAVOR:Marlin
;TIME:791
;Filament used:0.356109m
;Layer height: 0.15
;MINX:97.878
;MINY:95.604
;MINZ:0.18
;MAXX:122.123
;MAXY:124.394
;MAXZ:4.58
                             
;Creality Print GCode Generated by CXEngineDEV
;Generated Time:2022-06-30 15:03:19
;----------Machine Config--------------
;Machine Name:Creality Ender-3
;Machine Height:250
;Machine Width:220
;Machine Depth:220
;Material name:cxsw
;Number of Extruders:1
;ExtruderParams[0] Nozzle Diameter1000
;----------Profile Config---------------
;Layer Height:0.15
;Wall Thickness:0.8
;Top/Bottom Thickness:1
;Out Wall Line Width:0.4
;Inner Wall Line Width:0.4
;Inital Layer Height:150
;Wall Line Count:2
;Infill Line Distance:2
;Infill Pattern:grid
;Infill Sparse Density:20
;Infill Wipe Distance:0
;Print Temperature:200
;Bed Temperature:60
;Support Enable:false
;Support Density:30
;Support Angle:1.0472
;Adhesion Type:simpleraft
;machine is belt:false
;machine belt offset:10
;machine belt offset Y:0.15
;Raft Base Line Spacing:1.6
;Wait Heatup Sync:true
;----------Shell Config----------------
;Outer Wall Wipe Distance:200
;Infill Before Walls:false
;Infill Overlap:0.16
;Fill Gaps Between Walls:everywhere
;Minimum Infill Area:1
;Top Surface Skin Layer:0
;Top Layers:4
;Z Seam Alignment:sharpest_corner
;Seam Corner Preference:z_seam_corner_inner
;Z Seam X:110
;Z Seam Y:110
;Horizontal Expansion:0
;Top/Bottom Pattern:zigzag
;Ironing Pattern:zigzag
;Vase Model:false
;----------Support Config----------------
;Support Type:everywhere
;Support Pattern:zigzag
;Support Infill Layer Thickness:0.15
;Minimum Support Area:5
;Enable Support Roof:false
;Support Roof Thickness:0.8
;Support Roof Pattern:lines
;Connect Support Lines:0
;Connect Support ZigZags:1
;Minimum Support X/Y Distance:0.2
;Support Line Distance:1.33
; ---------PrintSpeed & Travel----------
;Enable Print Cool:true
;Avoid Printed Parts Traveling:true
;Enable Retraction:true
;Retraction Distance:8
;Retraction Speed:100
;Retraction Prime Speed:100
;Maximum Retraction Count:100
;Minimum Extrusion Distance Window:1
;Z Hop When Retracted:false
;Z Hop Height:0.2
;Retract Before Outer Wall:true
;Print Speed:50
;Infill Speed:50

;Prime Tower Speed:50
;Travel Speed:120
;Initial Layer Speed:25
;Skirt/Brim Speed:25
;Combing Mode:off
; --------SpecialModel&Mesh Fixes--------
;Union Overlapping Volum:true
;Remove All Holes:false
;Maximum Travel Resolution:0.6
;Maximum Deviation:0.05
;Maximum Model Angle:0.872665
;IS Mold Print:false
;Make Overhang Printable:false
;Enable Coasting:false
;Coasting Volumes:0.06
;Coasting Speed:0.9
;Raft AirGap:0.25
;Layer0 ZOverLap:0.13
;---------------------End of Head--------------------------
M140 S60
M105
M104 S200
M105
M109 S200
M105
M190 S60
M82 ;absolute extrusion mode
M220 S100 ;Reset Feedrate
M221 S100 ;Reset Flowrate

G28 ;Home

G92 E0 ;Reset Extruder
G1 Z2.0 F3000 ;Move Z Axis up
G1 X10.1 Y20 Z0.28 F5000.0 ;Move to start position
G1 X10.1 Y145.0 Z0.28 F1500.0 E15 ;Draw the first line
G1 X10.4 Y145.0 Z0.28 F5000.0 ;Move to side a little
G1 X10.4 Y20 Z0.28 F1500.0 E30 ;Draw the second line
G92 E0  ;Reset Extruder
G1 E-1.0000 F1800 ;Retract a bit
G1 Z2.0 F3000 ;Move Z Axis up
G1 E0.0000 F1800 

G92 E0
G92 E0
G1 F6000 E-8

;LAYER_COUNT:25

;LAYER:-4
M107
G0 F7200 X100.8 Y99.303 Z0.18
;TYPE:SUPPORT-INTERFACE
G1 F6000 E0
G1 F1200 X100.8 Y120.69 E1.40844
G1 X100.568 Y120.426 E1.43159
G1 X100.436 Y120.261 E1.4455
G1 X100.083 Y119.777 E1.48495
G1 X99.957 Y119.589 E1.49986
G1 X99.638 Y119.058 E1.54065
G1 X99.556 Y118.907 E1.55197
G1 X99.274 Y118.325 E1.59456
G1 X99.2 Y118.155 E1.60677
G1 X99.2 Y101.858 E2.68001
G1 X99.327 Y101.556 E2.70158
G1 X99.4 Y101.401 E2.71287
G1 X99.714 Y100.807 E2.75711
G1 X99.817 Y100.633 E2.77043
G1 X100.136 Y100.144 E2.80888
G1 X100.241 Y99.996 E2.82083
G1 X100.661 Y99.46 E2.86567
G1 X100.755 Y99.351 E2.87515
G1 X101.223 Y98.855 E2.92006
G1 X101.33 Y98.751 E2.92989
G1 X101.808 Y98.326 E2.97201
G1 X101.95 Y98.212 E2.984
G1 X102.4 Y97.878 E3.02091
G1 X102.4 Y122.123 E4.61756
G1 X102.884 Y122.442 E4.65574
G1 X103.053 Y122.543 E4.6687
G1 X103.629 Y122.851 E4.71172
G1 X103.781 Y122.925 E4.72285
G1 X104 Y123.018 E4.73852
G1 X104 Y96.975 E6.45358
G1 X104.051 Y96.953 E6.45724
G1 X104.646 Y96.723 E6.49925
G1 X104.83 Y96.661 E6.51204
G1 X105.478 Y96.476 E6.55642
G1 X105.6 Y96.446 E6.56469
G1 X105.6 Y123.547 E8.34943
G1 X105.935 Y123.624 E8.37207
G1 X106.147 Y123.662 E8.38625
G1 X106.76 Y123.746 E8.427
G1 X106.939 Y123.761 E8.43882
G1 X107.2 Y123.772 E8.45603
G1 X107.2 Y96.22 E10.27047
G1 X107.254 Y96.216 E10.27403
G1 X107.692 Y96.204 E10.30289
G1 X108.8 Y96.205 E10.37586
G1 X108.8 Y123.793 E12.19267
G1 X110.4 Y123.794 E12.29803
G1 X110.4 Y96.206 E14.11484
G1 X112 Y96.206 E14.22021
G1 X112 Y123.795 E16.03709
G1 X112.307 Y123.796 E16.0573
G1 X112.747 Y123.784 E16.08629
G1 X113.528 Y123.712 E16.13794
G1 X113.6 Y123.702 E16.14273
G1 X113.6 Y96.302 E17.94716
G1 X113.852 Y96.336 E17.9639
G1 X114.067 Y96.375 E17.97829
G1 X114.645 Y96.506 E18.01732
G1 X114.871 Y96.568 E18.03276
G1 X115.2 Y96.675 E18.05554
G1 X115.2 Y123.329 E19.81084
G1 X115.354 Y123.277 E19.82155
G1 X115.949 Y123.047 E19.86355
G1 X116.07 Y122.994 E19.87225
G1 X116.681 Y122.694 E19.91708
G1 X116.8 Y122.629 E19.92601
G1 X116.8 Y97.378 E21.58892
G1 X116.96 Y97.463 E21.60085
G1 X117.099 Y97.545 E21.61148
G1 X117.623 Y97.89 E21.65279
G1 X117.801 Y98.018 E21.66723
G1 X118.293 Y98.408 E21.70858
G1 X118.4 Y98.503 E21.718
G1 X118.4 Y121.49 E23.23181
G1 X118.662 Y121.256 E23.25494
G1 X118.793 Y121.129 E23.26696
G1 X119.232 Y120.663 E23.30912
G1 X119.348 Y120.527 E23.32089
G1 X119.759 Y120.004 E23.3647
G1 X119.859 Y119.865 E23.37597
G1 X120 Y119.649 E23.39296
G1 X120 Y100.344 E24.66429
G1 X120.043 Y100.408 E24.66937
G1 X120.344 Y100.908 E24.7078
G1 X120.446 Y101.094 E24.72177
G1 X120.722 Y101.66 E24.76324
G1 X120.801 Y101.841 E24.77625
G1 X121.031 Y102.448 E24.819
G1 X121.079 Y102.596 E24.82924
G1 X121.249 Y103.195 E24.87025
G1 X121.302 Y103.424 E24.88573
G1 X121.409 Y103.993 E24.92385
G1 X121.441 Y104.217 E24.93876
G1 X121.5 Y104.82 E24.97866
G1 X121.523 Y105.465 E25.02116
G1 X121.519 Y106.049 E25.05962
G1 X121.482 Y106.792 E25.10861
G1 X121.47 Y106.926 E25.11747
G1 X121.379 Y107.584 E25.16122
G1 X121.347 Y107.755 E25.17267
G1 X121.176 Y108.48 E25.22173
G1 X121.031 Y109.164 E25.26777
G1 X120.968 Y109.895 E25.31609
G1 X121.001 Y110.635 E25.36487
G1 X121.173 Y111.542 E25.42567
G1 X121.247 Y111.805 E25.44366
G1 X121.301 Y112.037 E25.45935
G1 X121.415 Y112.644 E25.50002
G1 X121.438 Y112.812 E25.51119
G1 X121.509 Y113.614 E25.56421
G1 X121.522 Y114.48 E25.62125
G1 X121.493 Y115.251 E25.67206
G1 X121.476 Y115.461 E25.68593
G1 X121.393 Y116.1 E25.72837
G1 X121.36 Y116.294 E25.74133
G1 X121.227 Y116.89 E25.78154
G1 X121.175 Y117.08 E25.79451
G1 X120.987 Y117.676 E25.83567
G1 X120.924 Y117.846 E25.84761
G1 X120.669 Y118.454 E25.89103
G1 X120.6 Y118.599 E25.9016
G1 X120.292 Y119.182 E25.94502
;;retract;;
G1 F6000 E17.94502
G0 F600 X120.292 Y119.182 Z0.41
G0 F7200 X120.889 Y101.09
;TIME_ELAPSED:25.263678

;LAYER:-3
;TYPE:SUPPORT
G1 F6000 E25.94502
G1 F1800 X116.633 Y96.834 E26.40546
G1 X117.149 Y97.11 E26.45023
G1 X117.311 Y97.206 E26.46463
G1 X117.857 Y97.565 E26.51462
G1 X118.035 Y97.693 E26.53139
G1 X118.542 Y98.095 E26.58089
G1 X118.702 Y98.235 E26.59715
G1 X119.154 Y98.665 E26.64488
G1 X119.311 Y98.828 E26.66219
G1 X119.745 Y99.32 E26.71238
G1 X119.868 Y99.474 E26.72745
G1 X120.246 Y99.991 E26.77645
G1 X120.376 Y100.186 E26.79437
G1 X120.695 Y100.716 E26.8417
G1 X120.806 Y100.919 E26.85939
G1 X121.089 Y101.5 E26.90883
G1 X121.168 Y101.681 E26.92394
G1 X121.405 Y102.306 E26.97507
G1 X121.464 Y102.487 E26.98964
G1 X121.639 Y103.105 E27.03877
G1 X121.683 Y103.299 E27.05399
G1 X114.433 Y96.048 E27.83838
G1 X114.138 Y95.981 E27.86153
G1 X113.923 Y95.942 E27.87824
G1 X113.288 Y95.856 E27.92726
G1 X113.073 Y95.838 E27.94377
G1 X112.796 Y95.825 E27.96498
G1 X121.904 Y104.933 E28.95033
G1 X121.923 Y105.451 E28.98998
G1 X121.919 Y106.069 E29.03726
G1 X121.904 Y106.348 E29.05863
G1 X111.362 Y95.805 E30.19917
G1 X109.947 Y95.805 E30.30742
G1 X121.775 Y107.632 E31.58697
G1 X121.772 Y107.658 E31.58898
G1 X121.739 Y107.834 E31.60267
G1 X121.566 Y108.567 E31.66029
G1 X121.518 Y108.79 E31.67774
G1 X108.532 Y95.804 E33.08263
G1 X107.681 Y95.804 E33.14773
G1 X107.237 Y95.816 E33.18171
G1 X107.139 Y95.825 E33.18923
G1 X121.374 Y110.061 E34.7293
G1 X121.399 Y110.589 E34.76974
G1 X121.563 Y111.45 E34.83679
G1 X121.637 Y111.714 E34.85776
G1 X121.643 Y111.744 E34.8601
G1 X105.883 Y95.984 E36.5651
G1 X105.54 Y96.05 E36.59182
G1 X105.368 Y96.091 E36.60534
G1 X104.752 Y96.266 E36.65433
G1 X121.891 Y113.406 E38.50857
G1 X121.909 Y113.6 E38.52347
G1 X121.922 Y114.495 E38.59194
G1 X121.908 Y114.837 E38.61813
G1 X103.729 Y96.658 E40.58482
G1 X103.139 Y96.949 E40.63515
G1 X102.979 Y97.037 E40.64912
G1 X102.802 Y97.145 E40.66498
G1 X121.792 Y116.135 E42.71941
G1 X121.79 Y116.152 E42.72072
G1 X121.753 Y116.367 E42.73741
G1 X121.613 Y116.996 E42.7867
G1 X121.561 Y117.186 E42.80177
G1 X121.529 Y117.286 E42.8098
G1 X101.953 Y97.71 E44.92763
G1 X101.705 Y97.895 E44.9513
G1 X101.557 Y98.014 E44.96583
G1 X101.179 Y98.35 E45.00452
G1 X121.156 Y118.327 E47.16573
G1 X121.038 Y118.609 E47.18911
G1 X120.954 Y118.786 E47.2041
G1 X120.692 Y119.278 E47.24674
G1 X100.476 Y99.062 E49.43381
G1 X100.464 Y99.076 E49.43522
G1 X100.346 Y99.213 E49.44905
G1 X99.926 Y99.749 E49.50114
G1 X99.851 Y99.851 E49.51083
G1 X120.148 Y120.148 E51.70666
G1 X120.074 Y120.251 E51.71636
G1 X119.661 Y120.777 E51.76752
G1 X119.536 Y120.924 E51.78228
G1 X119.522 Y120.937 E51.78374
G1 X99.306 Y100.72 E53.97086
G1 X99.046 Y101.214 E54.01357
G1 X98.958 Y101.401 E54.02938
G1 X98.843 Y101.672 E54.0519
G1 X118.82 Y121.648 E56.21305
G1 X118.443 Y121.986 E56.25179
G1 X118.295 Y122.105 E56.26632
G1 X118.045 Y122.288 E56.29002
G1 X98.469 Y102.712 E58.40785
G1 X98.439 Y102.812 E58.41583
G1 X98.387 Y103.004 E58.43105
G1 X98.248 Y103.628 E58.47995
G1 X98.21 Y103.848 E58.49703
G1 X98.207 Y103.864 E58.49828
G1 X117.197 Y122.854 E60.55271
G1 X117.021 Y122.963 E60.56855
G1 X116.863 Y123.05 E60.58234
G1 X116.269 Y123.34 E60.63291
G1 X98.09 Y105.161 E62.59961
G1 X98.078 Y105.507 E62.62609
G1 X98.091 Y106.4 E62.69441
G1 X98.107 Y106.592 E62.70915
G1 X115.247 Y123.732 E64.56344
G1 X114.631 Y123.909 E64.61247
G1 X114.46 Y123.95 E64.62592
G1 X114.115 Y124.015 E64.65278
G1 X98.356 Y108.255 E66.35772
G1 X98.366 Y108.298 E66.36109
G1 X98.435 Y108.543 E66.38057
G1 X98.601 Y109.408 E66.44794
G1 X98.625 Y109.938 E66.48853
G1 X112.86 Y124.174 E68.0286
G1 X112.764 Y124.184 E68.03598
G1 X112.318 Y124.196 E68.07011
G1 X111.466 Y124.194 E68.13529
G1 X98.483 Y111.21 E69.53991
G1 X98.437 Y111.431 E69.55717
G1 X98.407 Y111.535 E69.56546
G1 X98.264 Y112.155 E69.61413
G1 X98.224 Y112.366 E69.63056
G1 X110.051 Y124.193 E70.91006
G1 X108.636 Y124.192 E71.01831
G1 X98.095 Y113.651 E72.15868
G1 X98.083 Y113.931 E72.18012
G1 X98.078 Y114.563 E72.22847
G1 X98.089 Y115.01 E72.26268
G1 X98.093 Y115.063 E72.26674
G1 X107.202 Y124.172 E73.2522
G1 X106.912 Y124.161 E73.2744
G1 X106.726 Y124.145 E73.28868
G1 X106.076 Y124.056 E73.33887
G1 X105.864 Y124.018 E73.35535
G1 X105.563 Y123.948 E73.37899
G1 X98.318 Y116.703 E74.16279
G1 X98.364 Y116.901 E74.17834
G1 X98.529 Y117.488 E74.22498
G1 X98.596 Y117.693 E74.24148
G1 X98.822 Y118.288 E74.29017
G1 X98.914 Y118.5 E74.30785
G1 X99.204 Y119.098 E74.35869
G1 X99.286 Y119.249 E74.37183
G1 X99.624 Y119.811 E74.422
G1 X99.752 Y120.003 E74.43965
G1 X100.115 Y120.5 E74.48673
G1 X100.267 Y120.69 E74.50535
G1 X100.685 Y121.166 E74.55381
G1 X100.836 Y121.324 E74.57053
G1 X101.314 Y121.778 E74.62096
G1 X101.456 Y121.901 E74.63533
G1 X101.952 Y122.295 E74.68379
G1 X102.159 Y122.444 E74.7033
G1 X102.679 Y122.786 E74.75091
G1 X102.855 Y122.891 E74.76659
G1 X103.363 Y123.162 E74.81063
G1 X99.113 Y118.912 E75.27042
;;retract;;
G1 F6000 E67.27042
G0 F600 X99.113 Y118.912 Z0.56
G0 F7200 X97.917 Y113.2
;TIME_ELAPSED:49.299650

;LAYER:-2
;TYPE:SUPPORT-INTERFACE
G1 F6000 E75.27042
G1 F2400 X122.075 Y113.2 E75.87304
G1 X122.109 Y113.595 E75.88293
G1 X122.11 Y113.6 E75.88306
G1 X97.899 Y113.6 E76.487
G1 X97.883 Y113.921 E76.49502
G1 X97.883 Y114 E76.49699
G1 X122.115 Y114 E77.10146
G1 X122.121 Y114.4 E77.11144
G1 X97.88 Y114.4 E77.71614
G1 X97.878 Y114.563 E77.7202
G1 X97.883 Y114.8 E77.72612
G1 X122.11 Y114.8 E78.33046
G1 X122.095 Y115.2 E78.34045
G1 X97.905 Y115.2 E78.94387
G1 X97.941 Y115.6 E78.95389
G1 X122.063 Y115.6 E79.55561
G1 X122.011 Y116 E79.56567
G1 X97.984 Y116 E80.16503
G1 X97.993 Y116.063 E80.16662
G1 X98.056 Y116.4 E80.17517
G1 X121.95 Y116.4 E80.77121
G1 X121.861 Y116.8 E80.78143
G1 X98.135 Y116.8 E81.37328
G1 X98.167 Y116.938 E81.37681
G1 X98.24 Y117.2 E81.38359
G1 X121.764 Y117.2 E81.9704
G1 X121.756 Y117.232 E81.97123
G1 X121.638 Y117.6 E81.98087
G1 X98.355 Y117.6 E82.56166
G1 X98.409 Y117.764 E82.56597
G1 X98.498 Y118 E82.57226
G1 X121.506 Y118 E83.1462
G1 X121.475 Y118.087 E83.1485
G1 X121.342 Y118.4 E83.15699
G1 X98.652 Y118.4 E83.72299
G1 X98.734 Y118.588 E83.72811
G1 X98.836 Y118.8 E83.73398
G1 X121.167 Y118.8 E84.29102
G1 X121.131 Y118.879 E84.29319
G1 X120.959 Y119.2 E84.30227
G1 X99.031 Y119.2 E84.84927
G1 X99.119 Y119.359 E84.8538
G1 X99.262 Y119.6 E84.86079
G1 X120.74 Y119.6 E85.39657
G1 X120.704 Y119.665 E85.39842
G1 X120.484 Y120 E85.40842
G1 X99.508 Y120 E85.93166
G1 X99.583 Y120.11 E85.93499
G1 X99.793 Y120.4 E85.94392
G1 X120.21 Y120.4 E86.45322
G1 X119.896 Y120.8 E86.46591
G1 X100.096 Y120.8 E86.95982
G1 X100.107 Y120.812 E86.96023
G1 X100.446 Y121.2 E86.97308
G1 X119.549 Y121.2 E87.4496
G1 X119.22 Y121.552 E87.46162
G1 X119.168 Y121.6 E87.46339
G1 X100.835 Y121.6 E87.92071
G1 X101.176 Y121.923 E87.93242
G1 X101.264 Y122 E87.93534
G1 X118.725 Y122 E88.37091
G1 X118.568 Y122.141 E88.37617
G1 X118.407 Y122.271 E88.38133
G1 X118.231 Y122.4 E88.38678
G1 X101.762 Y122.4 E88.7976
G1 X101.843 Y122.463 E88.80016
G1 X102.035 Y122.602 E88.80607
G1 X102.334 Y122.8 E88.81502
G1 X117.67 Y122.8 E89.19757
G1 X117.115 Y123.14 E89.21381
G1 X117.004 Y123.2 E89.21696
G1 X103.006 Y123.2 E89.56614
G1 X103.342 Y123.379 E89.57564
G1 X103.539 Y123.475 E89.5811
G1 X104.141 Y123.731 E89.59742
G1 X104.352 Y123.809 E89.60303
G1 X104.94 Y124 E89.61845
G1 X115.043 Y124 E89.87047
G1 X115.326 Y123.92 E89.87781
G1 X115.546 Y123.845 E89.88361
G1 X116.165 Y123.606 E89.90016
G1 X116.177 Y123.6 E89.9005
G1 X103.831 Y123.6 E90.20847
;;retract;;
G1 F6000 E82.20847
G0 F7200 X97.917 Y113.198
G1 F6000 E90.20847
G1 F2400 X97.937 Y112.984 E90.21383
G1 X97.963 Y112.8 E90.21846
G1 X122.039 Y112.8 E90.81904
G1 X122.033 Y112.738 E90.8206
G1 X122.004 Y112.533 E90.82576
G1 X121.98 Y112.4 E90.82913
G1 X98.019 Y112.4 E91.42684
G1 X98.025 Y112.351 E91.42807
G1 X98.069 Y112.11 E91.43418
G1 X98.096 Y112 E91.43701
G1 X121.905 Y112 E92.03093
G1 X121.884 Y111.892 E92.03367
G1 X121.834 Y111.677 E92.03918
G1 X121.813 Y111.6 E92.04117
G1 X98.191 Y111.6 E92.63042
G1 X98.242 Y111.383 E92.63598
G1 X98.281 Y111.2 E92.64065
G1 X121.72 Y111.2 E93.22534
G1 X121.643 Y110.8 E93.2355
G1 X98.366 Y110.8 E93.81615
G1 X98.377 Y110.745 E93.81755
G1 X98.406 Y110.4 E93.82618
G1 X121.591 Y110.4 E94.40454
G1 X121.574 Y110 E94.41452
G1 X98.427 Y110 E94.99193
G1 X98.409 Y109.6 E95.00191
G1 X121.595 Y109.6 E95.58029
G1 X121.625 Y109.252 E95.58901
G1 X121.635 Y109.2 E95.59033
G1 X98.357 Y109.2 E96.171
G1 X98.28 Y108.8 E96.18116
G1 X121.72 Y108.8 E96.76587
G1 X121.76 Y108.615 E96.77059
G1 X121.81 Y108.4 E96.7761
G1 X98.187 Y108.4 E97.36538
G1 X98.169 Y108.335 E97.36706
G1 X98.116 Y108.108 E97.37288
G1 X98.095 Y108 E97.37562
G1 X121.905 Y108 E97.96956
G1 X121.934 Y107.879 E97.97267
G1 X121.968 Y107.695 E97.97733
G1 X121.981 Y107.6 E97.97973
G1 X98.02 Y107.6 E98.57744
G1 X97.996 Y107.467 E98.58081
G1 X97.966 Y107.253 E98.5862
G1 X97.961 Y107.2 E98.58753
G1 X122.037 Y107.2 E99.1881
G1 X122.064 Y107.008 E99.19294
G1 X122.08 Y106.841 E99.19713
G1 X122.082 Y106.8 E99.19815
G1 X97.926 Y106.8 E99.80072
G1 X97.891 Y106.4 E99.81074
